X: 39163
T: Sweets Of May, The
R: jig
M: 6/8
K: Dmajor
A|:dfa f2 d|e2 f gfe|dfa fdf|ec/B/A d2 A|
dfa f2 d|e2 f gfe|dfa fdf|ec/B/A d3:|
|:efe e2 d|B2 d e2 c|d2 e f2 e|f2 g a2 f|
efe e2 d|B2 c ecA|dfa faf|1 ec/B/A d3:|2 ecA d2||
A|d2 A d2 e|fef gfe|d2 A d2 f|ec/B/A d2 A|
d2 A d2 e|fef gfe|d2 A def|ec/B/A dfg||
|:a3 a^ga|A3 ABA|g3 gfg|A3 ABc|
d2 A d2 e|fdf gfe|d2 A def|ec/B/A d3:|2 ec/B/A d2||

